X:102
T:The Golden Keyboard
R:reel
M:4/4
L:1/8
K:Edor
EDEF GFGA|BBgB fBeB|BEEF GBAG|FDAD BDAF|
EDEF GFGA|BBgB fBec|dcde dBAF|DFAF FEE2:|
Bee2 Bee2|Beef edBc|dAA2 fAA2|dcde dBAF|
EDEF GFGA|BBgB fBec|dcde dBAF|DFAF FEE2:|

